X: 40868
T: Trettondedagsmarschen
R: march
M: 
K: Amajor
M:2/4
L:1/16
|:cd|"A"e2a2 abag|"D"a2f2 f2ed|"D"f2ed f2ed|"E"B6 c2|
"D"d3c d2B2|"E"G2E2 D2C2|"E"B,2E2 EGBG|"A"AGAB cBcd|
"A"e2a2 abag|"D"a2f2 f2ed|"D"f2ed f2ed|"E"A2B2 B2c2|
"D"d3c d2B2|"E"G2E2 D2C2|"E"B,2E2 EGBG|"A"A6:|
|:A2-|"A"Acec acec|"A"Acec acec|"E"Bege bege|"E"Bege bege|
"A"Acec acec|"A"Acec acec|"D"Bcd2 "E"EGBG|1 "A"A6:|2 "A"AGAB cB||

